icons/rotate-left.svg

<?xml version="1.0" standalone="no"?><!-- Generator: Gravit.io --><svg xmlns="http://www.w3.org/2000/svg" xmlns:xlink="http://www.w3.org/1999/xlink" width="96" height="96"><path d=" M 21.419457190839168 42.24441860386 C 22.587632646744567 35.90068053909991 25.6681323510104 30.026139558988763 30.29427190999916 25.4 C 36.29427190999916 19.4 44.39427190999916 16 52.89427190999916 16 C 61.39427190999916 16 69.49427190999916 19.4 75.49427190999916 25.4 C 81.49427190999916 31.4 84.89427190999916 39.5 84.89427190999916 48 C 84.89427190999916 56.5 81.49427190999916 64.6 75.49427190999916 70.6 C 69.49427190999916 76.6 61.39427190999916 80 52.89427190999916 80 C 51.79427190999916 80 50.79427190999916 80.4 50.094271909999165 81.2 C 49.29427190999916 81.9 48.89427190999916 82.9 48.89427190999916 84 C 48.89427190999916 85.1 49.29427190999916 86.1 50.094271909999165 86.8 C 50.79427190999916 87.6 51.79427190999916 88 52.89427190999916 88 C 63.49427190999916 88 73.69427190999916 83.8 81.19427190999916 76.3 C 88.69427190999916 68.8 92.89427190999916 58.6 92.89427190999916 48 C 92.89427190999916 37.4 88.69427190999916 27.2 81.19427190999916 19.7 C 73.69427190999916 12.2 63.49427190999916 8 52.89427190999916 8 C 42.29427190999916 8 32.094271909999165 12.2 24.594271909999165 19.7 C 19.034664487301825 25.259607422697343 15.288398833349135 32.302858110731236 13.722073797499164 39.89288833796 L 10.794271909999168 32.6 C 10.494271909999156 31.7 9.69427190999916 30.9 8.69427190999916 30.5 C 7.694271909999159 30 6.594271909999165 30 5.594271909999165 30.4 C 4.694271909999159 30.8 3.894271909999162 31.6 3.4942719099991564 32.6 C 2.9942719099991564 33.5 2.9942719099991564 34.6 3.394271909999162 35.6 L 9.394271909999162 50.4 C 10.294271909999168 53 12.794271909999168 54.8 15.494271909999156 55 C 16.094271909999165 55 16.594271909999165 54.9 17.19427190999916 54.7 L 19.69427190999916 53.8 L 32.79427190999916 43.5 C 33.594271909999165 42.8 34.19427190999916 41.9 34.29427190999916 40.8 C 34.39427190999916 39.8 34.094271909999165 38.7 33.49427190999916 37.9 C 32.79427190999916 37 31.894271909999162 36.5 30.79427190999916 36.4 C 29.69427190999916 36.2 28.69427190999916 36.5 27.794271909999168 37.2 L 21.419457190839168 42.24441860386 Z " fill="#454545" stroke="none"/><mask id="_mask_rRfJJ8Mazw2KtfPpvYgVZFiZ928zEtkH"><path d=" M 21.419457190839168 42.24441860386 C 22.587632646744567 35.90068053909991 25.6681323510104 30.026139558988763 30.29427190999916 25.4 C 36.29427190999916 19.4 44.39427190999916 16 52.89427190999916 16 C 61.39427190999916 16 69.49427190999916 19.4 75.49427190999916 25.4 C 81.49427190999916 31.4 84.89427190999916 39.5 84.89427190999916 48 C 84.89427190999916 56.5 81.49427190999916 64.6 75.49427190999916 70.6 C 69.49427190999916 76.6 61.39427190999916 80 52.89427190999916 80 C 51.79427190999916 80 50.79427190999916 80.4 50.094271909999165 81.2 C 49.29427190999916 81.9 48.89427190999916 82.9 48.89427190999916 84 C 48.89427190999916 85.1 49.29427190999916 86.1 50.094271909999165 86.8 C 50.79427190999916 87.6 51.79427190999916 88 52.89427190999916 88 C 63.49427190999916 88 73.69427190999916 83.8 81.19427190999916 76.3 C 88.69427190999916 68.8 92.89427190999916 58.6 92.89427190999916 48 C 92.89427190999916 37.4 88.69427190999916 27.2 81.19427190999916 19.7 C 73.69427190999916 12.2 63.49427190999916 8 52.89427190999916 8 C 42.29427190999916 8 32.094271909999165 12.2 24.594271909999165 19.7 C 19.034664487301825 25.259607422697343 15.288398833349135 32.302858110731236 13.722073797499164 39.89288833796 L 10.794271909999168 32.6 C 10.494271909999156 31.7 9.69427190999916 30.9 8.69427190999916 30.5 C 7.694271909999159 30 6.594271909999165 30 5.594271909999165 30.4 C 4.694271909999159 30.8 3.894271909999162 31.6 3.4942719099991564 32.6 C 2.9942719099991564 33.5 2.9942719099991564 34.6 3.394271909999162 35.6 L 9.394271909999162 50.4 C 10.294271909999168 53 12.794271909999168 54.8 15.494271909999156 55 C 16.094271909999165 55 16.594271909999165 54.9 17.19427190999916 54.7 L 19.69427190999916 53.8 L 32.79427190999916 43.5 C 33.594271909999165 42.8 34.19427190999916 41.9 34.29427190999916 40.8 C 34.39427190999916 39.8 34.094271909999165 38.7 33.49427190999916 37.9 C 32.79427190999916 37 31.894271909999162 36.5 30.79427190999916 36.4 C 29.69427190999916 36.2 28.69427190999916 36.5 27.794271909999168 37.2 L 21.419457190839168 42.24441860386 Z " fill="white" stroke="none"/></mask><path d=" M 21.419457190839168 42.24441860386 C 22.587632646744567 35.90068053909991 25.6681323510104 30.026139558988763 30.29427190999916 25.4 C 36.29427190999916 19.4 44.39427190999916 16 52.89427190999916 16 C 61.39427190999916 16 69.49427190999916 19.4 75.49427190999916 25.4 C 81.49427190999916 31.4 84.89427190999916 39.5 84.89427190999916 48 C 84.89427190999916 56.5 81.49427190999916 64.6 75.49427190999916 70.6 C 69.49427190999916 76.6 61.39427190999916 80 52.89427190999916 80 C 51.79427190999916 80 50.79427190999916 80.4 50.094271909999165 81.2 C 49.29427190999916 81.9 48.89427190999916 82.9 48.89427190999916 84 C 48.89427190999916 85.1 49.29427190999916 86.1 50.094271909999165 86.8 C 50.79427190999916 87.6 51.79427190999916 88 52.89427190999916 88 C 63.49427190999916 88 73.69427190999916 83.8 81.19427190999916 76.3 C 88.69427190999916 68.8 92.89427190999916 58.6 92.89427190999916 48 C 92.89427190999916 37.4 88.69427190999916 27.2 81.19427190999916 19.7 C 73.69427190999916 12.2 63.49427190999916 8 52.89427190999916 8 C 42.29427190999916 8 32.094271909999165 12.2 24.594271909999165 19.7 C 19.034664487301825 25.259607422697343 15.288398833349135 32.302858110731236 13.722073797499164 39.89288833796 L 10.794271909999168 32.6 C 10.494271909999156 31.7 9.69427190999916 30.9 8.69427190999916 30.5 C 7.694271909999159 30 6.594271909999165 30 5.594271909999165 30.4 C 4.694271909999159 30.8 3.894271909999162 31.6 3.4942719099991564 32.6 C 2.9942719099991564 33.5 2.9942719099991564 34.6 3.394271909999162 35.6 L 9.394271909999162 50.4 C 10.294271909999168 53 12.794271909999168 54.8 15.494271909999156 55 C 16.094271909999165 55 16.594271909999165 54.9 17.19427190999916 54.7 L 19.69427190999916 53.8 L 32.79427190999916 43.5 C 33.594271909999165 42.8 34.19427190999916 41.9 34.29427190999916 40.8 C 34.39427190999916 39.8 34.094271909999165 38.7 33.49427190999916 37.9 C 32.79427190999916 37 31.894271909999162 36.5 30.79427190999916 36.4 C 29.69427190999916 36.2 28.69427190999916 36.5 27.794271909999168 37.2 L 21.419457190839168 42.24441860386 Z " fill="none" stroke="none" stroke-width="16" mask="url(#_mask_rRfJJ8Mazw2KtfPpvYgVZFiZ928zEtkH)"/></svg>

<svg xmlns="http://www.w3.org/2000/svg" width="96" height="96"><path d="M21.42 42.244A32.028 32.028 0 0 1 30.293 25.4c6-6 14.1-9.4 22.6-9.4 8.5 0 16.6 3.4 22.6 9.4s9.4 14.1 9.4 22.6c0 8.5-3.4 16.6-9.4 22.6s-14.1 9.4-22.6 9.4c-1.1 0-2.1.4-2.8 1.2-.8.7-1.2 1.7-1.2 2.8 0 1.1.4 2.1 1.2 2.8.7.8 1.7 1.2 2.8 1.2 10.6 0 20.8-4.2 28.3-11.7 7.5-7.5 11.7-17.7 11.7-28.3 0-10.6-4.2-20.8-11.7-28.3-7.5-7.5-17.7-11.7-28.3-11.7-10.6 0-20.8 4.2-28.3 11.7a39.985 39.985 0 0 0-10.872 20.193L10.794 32.6c-.3-.9-1.1-1.7-2.1-2.1-1-.5-2.1-.5-3.1-.1-.9.4-1.7 1.2-2.1 2.2-.5.9-.5 2-.1 3l6 14.8c.9 2.6 3.4 4.4 6.1 4.6.6 0 1.1-.1 1.7-.3l2.5-.9 13.1-10.3c.8-.7 1.4-1.6 1.5-2.7.1-1-.2-2.1-.8-2.9-.7-.9-1.6-1.4-2.7-1.5-1.1-.2-2.1.1-3 .8l-6.375 5.044z" fill="#454545"/></svg>
